!!!OTL: Does Maala vo der Haa hot schoena weissa Baa
!!!ARE: Europa, Mitteleuropa, Deutschland, Ober - Franken, Ort
!!!SCT: V0006C
!!!YEM: Copyright 1995, estate of Helmut Schaffrath.
**kern
*ICvox
*Ivox
*M2/4
*k[b-e-]
*B-:
{8b-
=1
8.ff
16ff
8gg
8ff
=2
4dd
8r}
{8ff
=3
8ff
8ff
8gg
8ff
=4
4ee-
8r}
{8ff
=5
8ff
8ff
8gg
8ff
=6
16aa
16aa
8aa
8r}
{8ff
=7
8ff
8ff
8gg
8ff
=8
16bb-
16bb-
8bb-
8r}
{8ff
=9
8ff
8ff
8gg
8ff
=10
4dd
8r}
{8ff
=11
8ff
8ff
8gg
16aa
16aa
=12
4bb-
8r}
==
!!!AGN: Liebes - Lied
!!!ONB: ESAC (Essen Associative Code) Database: VARIANT
!!!AMT: simple duple
!!!AIN: vox
!!!EED: Helmut Schaffrath
!!!EEV: 1.0
*-
